!!!COM: Corelli, Arcangelo
!!!OTL: 
!!!ONM: Opus 5, No. 4
!!!OMV: 3
!!!CDT: 1653/2/17/-1713/1/8/
!!!OCY: Italia
**kern	**kern
*clefC	*clefG
*k[b-]	*k[b-]
*F:	*F:
*M3/4	*M3/4
=1	=1
2.F	8ff
.	8cc
.	8ff
.	8aa
.	8ccc
.	8aa
=2	=2
4AA	8ff
.	8cc
4BB-	8dd
.	8b-
4C	8g
.	8cc
=3	=3
2.F	8a
.	8cc
.	8ff
.	8aa
.	8ccc
.	8aa
=4	=4
2.E	8gg
.	8cc
.	8ee
.	8gg
.	8ee
.	8cc
=5	=5
4D	8ff
.	8aa
4G	8ff
.	8dd
4GG	8b
.	8gg
=6	=6
2.C	8ee
.	8g
.	8cc
.	8g
.	8e
.	8c
=7	=7
4r	8A
.	8cc
4F	8ff
.	8aa
4AA	8ff
.	8cc
=8	=8
2.BB-	8dd
.	8B-
.	8d
.	8f
.	8d
.	8B-
=9	=9
4r	8G
.	8g
4G	8b
.	8dd
4BB	8gg
.	8dd
=10	=10
2.C	8ee
.	8c
.	8e
.	8g
.	8e
.	8c
=11	=11
4r	8A
.	8a
4A	8cc#
.	8ee
4C#	8aa
.	8ee
=12	=12
2.D	8ff
.	8d
.	8f
.	8a
.	8dd
.	8d
=13	=13
4r	8e
.	8cc
4c	8ee
.	8gg
4E	8ccc
.	8gg
=14	=14
2F	8aa
.	8f
.	8a
.	8cc
4AA	8ff
.	8cc
=15	=15
2BB-	8dd
.	8ff
.	8b-
.	8dd
4GG	8gg
.	8bb-
=16	=16
2C	8ee
.	8gg
.	8ccc
.	8ee
4D	8ff
.	8aa
=17	=17
2BB-	8b-
.	8aa
.	2gg 2cc
4C	.
=18	=18
2.F	12ff
.	12cc
.	12ff
.	12ff
.	12cc
.	12ff
.	12ff
.	12cc
.	12ff
=19	=19
2.E	12gg
.	12cc
.	12gg
.	12gg
.	12cc
.	12gg
.	12gg
.	12cc
.	12gg
=20	=20
2.F	12aa
.	12cc
.	12aa
.	12aa
.	12cc
.	12aa
.	12aa
.	12cc
.	12aa
=21	=21
2.E	12gg
.	12cc
.	12gg
.	12gg
.	12cc
.	12gg
.	12gg
.	12cc
.	12gg
=22	=22
2.D	12ff
.	12b
.	12ff
.	12ff
.	12b
.	12ff
.	12ff
.	12b
.	12ff
=23	=23
2C	12ee
.	12cc
.	12ee
.	12ee
.	12cc
.	12ee
4E	12ccc
.	12ee
.	12ccc
=24	=24
2F	12aa
.	12ff
.	12aa
.	12aa
.	12ff
.	12aa
4F	12ddd
.	12ff
.	12ddd
=25	=25
2G	12bb
.	12gg
.	12bb
.	12bb
.	12gg
.	12bb
4E	12ccc
.	12ee
.	12ccc
=26	=26
4F	12aa
.	12bb
.	12ccc
4G	12ee
.	12ccc
.	12ee
4GG	12dd
.	12ccc
.	12bb
=27	=27
2.C	8ccc
.	8ee
.	8gg
.	8ee
.	8cc
.	8g
=28	=28
4r	8e
.	8cc
4c	8ee
.	8gg
4E	8ccc
.	8gg
=29	=29
2.F	8aa
.	8a
.	8cc
.	8a
.	8f
.	8c
=30	=30
4r	8A
.	8cc
4F	8ff
.	8aa
4AA	8ff
.	8cc
=31	=31
2BB-	8dd
.	8b-
.	8dd
.	8ff
4BB	8gg
.	8dd
=32	=32
2C	8ee
.	8cc
.	8ee
.	8gg
4C#	8aa
.	8ee
=33	=33
4D	8ff
.	8a
4FF	8dd
.	8ff
4GG	8bb-
.	8dd
=34	=34
4AA	8cc#
.	8ee
[2A	8aa
.	8a
.	8cc
.	8aa
=35	=35
4A]	8b
.	8dd
[2G	8gg
.	8b-
.	8dd
.	8gg
=36	=36
4G]	8a
.	8cc#
4F	8dd
.	8a
4G	8b-
.	8g
=37	=37
4A	8f
.	8a
2AA	8dd
.	8f
.	8e
.	8cc#
=38	=38
2.D	8d
.	8dd
.	8ff
.	8aa
.	8ff
.	8dd
=39	=39
4r	8b
.	8dd
4BB	8gg
.	8dd
4GG	8b
.	8gg
=40	=40
2.C	8ee
.	8g
.	8cc
.	8ee
.	8cc
.	8g
=41	=41
4r	8e
.	8g
4E	8cc
.	8g
4C	8e
.	8cc
=42	=42
2.F	8a
.	8cc
.	8ff
.	8aa
.	8ff
.	8cc
=43	=43
4r	8a
.	8cc
4A	8ff
.	8cc
4F	8a
.	8ff
=44	=44
2.B-	8dd
.	8ff
.	8b-
.	8dd
.	8g
.	8b-
=45	=45
2.c	8e
.	8gg
.	8cc
.	8ee
.	8a
.	8cc
=46	=46
2.d	8f
.	8aa
.	8dd
.	8ff
.	8b-
.	8dd
=47	=47
2.e	8g
.	8bb-
.	8ee
.	8gg
.	8cc
.	8ee
=48	=48
2f	8a
.	8ccc
.	8ff
.	8aa
4A	8cc
.	8ff
=49	=49
2B-	8dd
.	8ff
.	8b-
.	8dd
4B-	8gg
.	8bb-
=50	=50
2c	8ee
.	8gg
.	8ccc
.	8ee
4d	8ff
.	8aa
=51	=51
4B-	8b-
.	8aa
4c	2gg 2cc
4C	.
=52	=52
2.F	8ff
.	8a
.	8cc
.	8a
.	8f
.	8dd
=53	=53
2.E	8g
.	8b
.	8cc
.	8g
.	8e
.	8cc
=54	=54
2.D	8f
.	8a
.	8dd
.	8ff
.	8bb-
.	8dd
=55	=55
2.C	8ee
.	8gg
.	8ccc
.	8ee
.	8aa
.	8a
=56	=56
2.BB-	8dd
.	8ff
.	8bb-
.	8b-
.	8dd
.	8gg
=57	=57
2BB-	8ee
.	8gg
.	8ccc
.	8ee
4AA	8ff
.	8cc
=58	=58
4BB-	8dd
.	8a
2C	2g
=59	=59
4.F	4.f
8AA	8ff
4BB-	8dd
.	8cc
=60	=60
4FF	8b-
.	8a
2C	2g
=61	=61
2.FF	2.c 2.f 2.a
==	==
*-	*-
!!!RWG: This file only contains pitch and duration data.
!!!RWG: Transposing instruments are not transposed.
!!!RWG: Durations of rests and tied notes may be interpreted.
!!!RWG: Key is interpreted using the Humdrum key tool.
!!!SCA: 
!!!YOR: 
!!!AGN: violin
!!!AFT: stage1
!!!ENC: F. Bennion
!!!END: 1997/04/15
!!!AST: baroque
!!!YEC: Copyright 1994, Center for Computer Assisted Research in the Humanities
!!!YEM: Rights to all derivative electronic formats reserved.
!!!YEM: Refer to licensing agreement for further details.
!!!YEN: United States of America
!!!EED: W.B. Hewlett
!!!KEY: 2736453310
!!!EMD: Converted from MuseData to Humdrum Aug 9, 1999, by Bret Aarden using muse2kern.
!!!VTS: 2400270720
